X:2342
T:Butlers of Glen Avenue, The
C:Anthony Sullivan
R:jig
Z:id:hn-jig-365
M:6/8
L:1/8
K:G
DEG EDB,|DEG A~B2|DEG B2e|dBe dBA|
DEG EDB,|DEG A~B2|~d3 gfe|dBA G3:|
|:gab age|deg ~B3|gab gab|dBd ~e3|
gab age|dBd ~B3|~d3 gfe|dBA G3:|


